usr/share/icons/biglinux-icons-material-dark/22/actions/insert-footnote.svg

<svg xmlns="http://www.w3.org/2000/svg" viewBox="0 0 22 22">
<defs id="defs3051">
<style id="current-color-scheme" type="text/css">
.ColorScheme-Text{color:#dedede}.ColorScheme-Highlight{color:#3daee9}
</style>
</defs>
<path d="M4 3v16h7v-1H5V4h12v8h1V3zm2 3v1h10V6zm0 2v1h6V8zm0 5v1h7v-1z" class="ColorScheme-Text" style="fill:currentColor;fill-opacity:1;stroke:none"/>
<path d="m16 13-1 2h1v4h1v-6zM6 15v1h7v-1z" class="ColorScheme-Highlight" style="fill:currentColor;fill-opacity:1;stroke:none"/>
</svg>

<svg xmlns="http://www.w3.org/2000/svg" viewBox="0 0 22 22">
  <defs id="defs3051">
    <style type="text/css" id="current-color-scheme">
      .ColorScheme-Text {
        color:#dedede;
      }
      .ColorScheme-Highlight {
        color:#3daee9;
      }
      </style>
  </defs>
 <path 
     style="fill:currentColor;fill-opacity:1;stroke:none" 
     d="M 4 3 L 4 19 L 5 19 L 11 19 L 11 18 L 5 18 L 5 4 L 17 4 L 17 12 L 18 12 L 18 3 L 17 3 L 5 3 L 4 3 z M 6 6 L 6 7 L 16 7 L 16 6 L 6 6 z M 6 8 L 6 9 L 12 9 L 12 8 L 6 8 z M 6 13 L 6 14 L 13 14 L 13 13 L 6 13 z "
     class="ColorScheme-Text"
     />
 <path 
     style="fill:currentColor;fill-opacity:1;stroke:none" 
     d="M 16 13 L 15 15 L 16 15 L 16 19 L 17 19 L 17 13 L 16 13 z M 6 15 L 6 16 L 13 16 L 13 15 L 6 15 z "
     class="ColorScheme-Highlight"
     />
</svg>
